icons/edit-circle-fill.svg

<svg viewBox="0 0 24 24" fill="currentColor" xmlns="http://www.w3.org/2000/svg">
    <path d="M16.6256 3.1285L9.29145 10.4626L9.29886 14.7098L13.537 14.7024L20.8682 7.37114C21.5912 8.75438 22 10.3278 22 11.9967C22 17.5196 17.5228 21.9967 12 21.9967C6.47715 21.9967 2 17.5196 2 11.9967C2 6.47386 6.47715 1.9967 12 1.9967C13.6689 1.9967 15.2423 2.40553 16.6256 3.1285ZM20.4853 2.09721L21.8995 3.51142L12.7071 12.7038L11.2954 12.7063L11.2929 11.2896L20.4853 2.09721Z"/>
</svg>

<svg xmlns="http://www.w3.org/2000/svg" viewBox="0 0 24 24">
    <g>
        <path fill="none" d="M0 0h24v24H0z"/>
        <path d="M16.626 3.132L9.29 10.466l.008 4.247 4.238-.007 7.331-7.332A9.957 9.957 0 0 1 22 12c0 5.523-4.477 10-10 10S2 17.523 2 12 6.477 2 12 2c1.669 0 3.242.409 4.626 1.132zm3.86-1.031l1.413 1.414-9.192 9.192-1.412.003-.002-1.417L20.485 2.1z"/>
    </g>
</svg>
